actions/22x22-light/color-management.svg

<svg height="22" width="22" xmlns="http://www.w3.org/2000/svg" xmlns:xlink="http://www.w3.org/1999/xlink"><linearGradient id="a" gradientUnits="userSpaceOnUse" x1="383.53833" x2="416.79535" y1="531.66302" y2="531.39801"><stop offset="0" stop-color="#ac92ec"/><stop offset=".20237894" stop-color="#64a9ff"/><stop offset=".32345149" stop-color="#4cdbb7"/><stop offset=".53399092" stop-color="#aee672"/><stop offset=".76312304" stop-color="#ffce53"/><stop offset=".89940798" stop-color="#fb6e51"/><stop offset="1" stop-color="#ed5565"/></linearGradient><linearGradient id="b" gradientUnits="userSpaceOnUse" x1="2.895125973322" x2="18.777627123653" y1="10.952482897699" y2="10.865420560267"><stop offset="0" stop-color="#ac92ec"/><stop offset=".1366801" stop-color="#64a9ff"/><stop offset=".26767892" stop-color="#4cdbb7"/><stop offset=".49417827" stop-color="#aee672"/><stop offset=".74118012" stop-color="#ffce53"/><stop offset=".93032265" stop-color="#fb6e51"/><stop offset="1" stop-color="#ed5565"/></linearGradient><linearGradient id="c" gradientUnits="userSpaceOnUse" x1="400.355637364059" x2="400.40303455671" y1="546.679033762206" y2="516.781498750875"><stop offset="0" stop-color="#d8d8d8"/><stop offset="1" stop-color="#fff"/></linearGradient><g stroke-width="1.079655" transform="matrix(-.160103506976 .029803661378 -.029803661378 -.160103506976 5.204288122194 -10.049405564875)"><circle cx="235.78929" cy="426.28171" fill="none" r="67.570946" transform="matrix(-.596773725366 -.111090891165 .111090891165 -.596773725366 80.811448706061 146.641989140801)"/><circle cx="400.61902" cy="531.72919" fill="url(#c)" r="0" stroke="url(#a)" stroke-linecap="round" stroke-linejoin="round" stroke-width="1.759135" transform="matrix(-3.06547218122 -.570645175746 .570645175746 -3.06547218122 913.404953134824 1724.654570717852)"/><g stroke-width="1.079655" transform="matrix(.999999993845 .00000000499 -.00000000499 .999999993845 -.080103005952 .374398114954)"><circle cx="235.78929" cy="426.28171" fill="none" r="67.570946" transform="matrix(-.596773725366 -.111090891165 .111090891165 -.596773725366 80.811448706061 146.641989140801)"/><path d="m11 3c-4.4129865 0-7.9999999 3.5870088-8 8 .0000002 4.412988 3.5870135 8 8 8 4.412986 0 8-3.587014 8-8 0-4.4129909-3.587013-7.9999999-8-8zm0 .8925781c3.930221 0 7.105469 3.1772018 7.105469 7.1074219 0 3.930217-3.175248 7.107422-7.105469 7.107422-3.9302159-.000001-7.1074221-3.177207-7.1074219-7.107422-.0000002-3.9302217 3.177206-7.107422 7.1074219-7.1074219z" fill="url(#b)" transform="matrix(-6.036768854684 -1.123759372736 1.123759372736 -6.036768854684 42.790299084297 -55.191968947342)"/><path d="m11 3.8339844a7.1666663 7.1666663 0 0 0 -7.1660156 7.1660156 7.1666663 7.1666663 0 0 0 7.1660156 7.166016 7.1666663 7.1666663 0 0 0 7.166016-7.166016 7.1666663 7.1666663 0 0 0 -7.166016-7.1660156zm-.068359 3.2675781c.066385 0 .134105.0337368.171875.0996094l2.287109 3.9882811c.778204 1.357183.308345 3.08704-1.048828 3.865235-1.357174.778203-3.0889933.310288-3.8671876-1.046876-.5176724-.902812-.480556-1.975191 0-2.818359l2.2871096-3.9882811c.037765-.0658726.103537-.0996094.169922-.0996094z" fill="#4d4d4d" opacity=".9" transform="matrix(-6.036768706286 -1.123759302318 1.123759302318 -6.036768706286 42.79029889505 -55.191968925573)"/></g></g></svg>

<?xml version="1.0" encoding="UTF-8" standalone="no"?>
<!-- Created with Inkscape (http://www.inkscape.org/) -->

<svg
   xmlns:sketch="http://www.bohemiancoding.com/sketch/ns"
   xmlns:dc="http://purl.org/dc/elements/1.1/"
   xmlns:cc="http://creativecommons.org/ns#"
   xmlns:rdf="http://www.w3.org/1999/02/22-rdf-syntax-ns#"
   xmlns:svg="http://www.w3.org/2000/svg"
   xmlns="http://www.w3.org/2000/svg"
   xmlns:xlink="http://www.w3.org/1999/xlink"
   xmlns:sodipodi="http://sodipodi.sourceforge.net/DTD/sodipodi-0.dtd"
   xmlns:inkscape="http://www.inkscape.org/namespaces/inkscape"
   width="22"
   height="22"
   id="svg3869"
   version="1.1"
   inkscape:version="0.91 r13725"
   sodipodi:docname="color-management.svg">
  <defs
     id="defs3871">
    <linearGradient
       id="linearGradient4470"
       inkscape:collect="always">
      <stop
         id="stop4472"
         offset="0"
         style="stop-color:#ac92ec;stop-opacity:1" />
      <stop
         style="stop-color:#64a9ff;stop-opacity:1"
         offset="0.20237894"
         id="stop4474" />
      <stop
         style="stop-color:#4cdbb7;stop-opacity:1"
         offset="0.32345149"
         id="stop4476" />
      <stop
         style="stop-color:#aee672;stop-opacity:1"
         offset="0.53399092"
         id="stop4478" />
      <stop
         style="stop-color:#ffce53;stop-opacity:1"
         offset="0.76312304"
         id="stop4480" />
      <stop
         style="stop-color:#fb6e51;stop-opacity:1"
         offset="0.89940798"
         id="stop4482" />
      <stop
         id="stop4484"
         offset="1"
         style="stop-color:#ed5565;stop-opacity:1" />
    </linearGradient>
    <linearGradient
       id="linearGradient7568"
       inkscape:collect="always">
      <stop
         id="stop7570"
         offset="0"
         style="stop-color:#161719;stop-opacity:1" />
      <stop
         id="stop7572"
         offset="1"
         style="stop-color:#424649;stop-opacity:1" />
    </linearGradient>
    <linearGradient
       inkscape:collect="always"
       xlink:href="#linearGradient7568"
       id="linearGradient7637"
       gradientUnits="userSpaceOnUse"
       x1="-53.412422"
       y1="-130.38367"
       x2="40.658073"
       y2="-130.38367" />
    <linearGradient
       id="linearGradient8467-5">
      <stop
         id="stop8469-7"
         style="stop-color:#d8d8d8;stop-opacity:1"
         offset="0" />
      <stop
         id="stop8471-0"
         style="stop-color:#ffffff;stop-opacity:1"
         offset="1" />
    </linearGradient>
    <linearGradient
       inkscape:collect="always"
       xlink:href="#linearGradient4470"
       id="linearGradient4468"
       x1="383.53833"
       y1="531.66302"
       x2="416.79535"
       y2="531.39801"
       gradientUnits="userSpaceOnUse" />
    <linearGradient
       id="linearGradient4470-8"
       inkscape:collect="always">
      <stop
         id="stop4472-2"
         offset="0"
         style="stop-color:#ac92ec;stop-opacity:1" />
      <stop
         style="stop-color:#64a9ff;stop-opacity:1"
         offset="0.1366801"
         id="stop4474-2" />
      <stop
         style="stop-color:#4cdbb7;stop-opacity:1"
         offset="0.26767892"
         id="stop4476-1" />
      <stop
         style="stop-color:#aee672;stop-opacity:1"
         offset="0.49417827"
         id="stop4478-1" />
      <stop
         style="stop-color:#ffce53;stop-opacity:1"
         offset="0.74118012"
         id="stop4480-5" />
      <stop
         style="stop-color:#fb6e51;stop-opacity:1"
         offset="0.93032265"
         id="stop4482-7" />
      <stop
         id="stop4484-6"
         offset="1"
         style="stop-color:#ed5565;stop-opacity:1" />
    </linearGradient>
    <linearGradient
       inkscape:collect="always"
       xlink:href="#linearGradient4470-8"
       id="linearGradient4468-6"
       x1="384.65826"
       y1="531.63562"
       x2="415.93533"
       y2="531.46417"
       gradientUnits="userSpaceOnUse"
       gradientTransform="matrix(0.50780016,0,0,0.50780016,-192.4344,-259.01217)" />
    <linearGradient
       y2="517.72125"
       x2="400.3681"
       y1="545.86066"
       x1="400.32349"
       gradientTransform="matrix(1.0624791,0,0,1.0624791,-24.979704,-33.286509)"
       gradientUnits="userSpaceOnUse"
       id="linearGradient4458"
       xlink:href="#linearGradient8467-5"
       inkscape:collect="always" />
    <linearGradient
       inkscape:collect="always"
       xlink:href="#linearGradient7568"
       id="linearGradient4596"
       gradientUnits="userSpaceOnUse"
       x1="-53.412422"
       y1="-130.38367"
       x2="40.658073"
       y2="-130.38367" />
  </defs>
  <sodipodi:namedview
     id="base"
     pagecolor="#ffffff"
     bordercolor="#666666"
     borderopacity="1.0"
     inkscape:pageopacity="0.0"
     inkscape:pageshadow="2"
     inkscape:zoom="31.999999"
     inkscape:cx="2.0363719"
     inkscape:cy="8.6573475"
     inkscape:document-units="px"
     inkscape:current-layer="layer1"
     showgrid="true"
     fit-margin-top="0"
     fit-margin-left="0"
     fit-margin-right="0"
     fit-margin-bottom="0"
     inkscape:window-width="2560"
     inkscape:window-height="1373"
     inkscape:window-x="0"
     inkscape:window-y="38"
     inkscape:window-maximized="1"
     inkscape:showpageshadow="false"
     inkscape:object-nodes="true"
     inkscape:snap-bbox="true">
    <inkscape:grid
       type="xygrid"
       id="grid4132" />
    <sodipodi:guide
       position="4,18"
       orientation="18,0"
       id="guide4138" />
    <sodipodi:guide
       position="5,3"
       orientation="0,18"
       id="guide4140" />
    <sodipodi:guide
       position="20,2.0000174"
       orientation="-18,0"
       id="guide4142" />
    <sodipodi:guide
       position="2,21"
       orientation="0,-18"
       id="guide4144" />
    <sodipodi:guide
       position="3,19.000017"
       orientation="16,0"
       id="guide4146" />
    <sodipodi:guide
       position="2,4"
       orientation="0,16"
       id="guide4148" />
    <sodipodi:guide
       position="21,20"
       orientation="-16,0"
       id="guide4150" />
    <sodipodi:guide
       position="2,20"
       orientation="0,-16"
       id="guide4152" />
  </sodipodi:namedview>
  <metadata
     id="metadata3874">
    <rdf:RDF>
      <cc:Work
         rdf:about="">
        <dc:format>image/svg+xml</dc:format>
        <dc:type
           rdf:resource="http://purl.org/dc/dcmitype/StillImage" />
        <dc:title />
      </cc:Work>
    </rdf:RDF>
  </metadata>
  <g
     inkscape:label="Capa 1"
     inkscape:groupmode="layer"
     id="layer1"
     transform="translate(-326,-534.3622)">
    <g
       transform="matrix(0.66666667,0,0,0.66666667,69.952376,190.8302)"
       id="layer1-98"
       inkscape:label="Capa 1">
      <g
         inkscape:label="Capa 1"
         id="layer1-72"
         transform="matrix(0.5,0,0,0.5,196.24122,269.88099)">
        <g
           id="g4780"
           transform="matrix(1.1580164,0,0,1.1580164,-64.546672,-82.758972)">
          <g
             id="g7719"
             transform="matrix(0.28241161,0,0,0.28241161,342.79502,402.75561)">
            <g
               id="g4489"
               transform="matrix(0.96045985,0,0,0.96045985,9.0002177,19.09919)">
              <g
                 id="undo5"
                 sketch:type="MSLayerGroup"
                 transform="matrix(-1.6074788,0.29923613,-0.29923613,-1.6074788,175.25807,214.99157)"
                 style="fill:#000000;stroke:none;stroke-width:1.07965529;stroke-miterlimit:4;stroke-dasharray:none">
                <flowRoot
                   xml:space="preserve"
                   id="flowRoot7530"
                   style="font-style:normal;font-weight:normal;font-size:12.5px;line-height:125%;font-family:sans-serif;letter-spacing:0px;word-spacing:0px;fill:#000000;fill-opacity:1;stroke:none;stroke-width:1.07965529;stroke-linecap:butt;stroke-linejoin:miter;stroke-miterlimit:4;stroke-dasharray:none;stroke-opacity:1"><flowRegion
                     id="flowRegion7532"
                     style="stroke:url(#linearGradient4596)"><rect
                       id="rect7534"
                       width="100.14703"
                       height="116.76128"
                       x="-427.81702"
                       y="-178.13846"
                       style="stroke:none;stroke-width:1.07965529;stroke-miterlimit:4;stroke-dasharray:none" /></flowRegion><flowPara
                     id="flowPara7536"
                     style="stroke:none;stroke-width:1.07965529;stroke-miterlimit:4;stroke-dasharray:none" /></flowRoot>                <g
                   id="g4495"
                   transform="matrix(0.95126249,0,0,0.95126249,2.2341504,-8.4379658)">
                  <g
                     id="g4520"
                     transform="translate(-2.8633216,1.9646179)">
                    <g
                       transform="matrix(-1.9141839,-0.35633004,0.35633004,-1.9141839,562.76065,1040.5903)"
                       id="layer1-7"
                       inkscape:label="Capa 1">
                      <g
                         transform="matrix(1.6134821,0,0,1.6134821,-246.07918,-318.92059)"
                         id="g5011">
                        <g
                           transform="matrix(0.12799035,0,0,0.12799035,330.90949,498.4778)"
                           id="g4387">
                          <g
                             id="g4347" />
                          <g
                             id="g4351" />
                          <g
                             id="g4353" />
                          <g
                             id="g4355" />
                          <g
                             id="g4357" />
                          <g
                             id="g4359" />
                          <g
                             id="g4361" />
                          <g
                             id="g4363" />
                          <g
                             id="g4365" />
                          <g
                             id="g4367" />
                          <g
                             id="g4369" />
                          <g
                             id="g4371" />
                          <g
                             id="g4373" />
                          <g
                             id="g4375" />
                          <g
                             id="g4377" />
                          <g
                             id="g4379" />
                        </g>
                      </g>
                    </g>
                    <g
                       id="g4546"
                       transform="matrix(0.99254353,0,0,0.99254353,0.10564195,-1.1289042)">
                      <circle
                         r="67.570946"
                         cy="426.28171"
                         cx="235.78929"
                         id="path4745"
                         style="opacity:1;fill:none;fill-opacity:1;stroke:none;stroke-width:2.59063697;stroke-linecap:round;stroke-linejoin:round;stroke-miterlimit:4;stroke-dasharray:none;stroke-opacity:1"
                         transform="matrix(-0.60125698,-0.11192546,0.11192546,-0.60125698,81.312108,148.88102)" />
                      <circle
                         cy="531.72919"
                         cx="400.61902"
                         id="path3377"
                         style="opacity:1;fill:url(#linearGradient4458);fill-opacity:1;stroke:url(#linearGradient4468);stroke-width:1.75913525;stroke-linecap:round;stroke-linejoin:round;stroke-miterlimit:4;stroke-dasharray:none;stroke-dashoffset:0;stroke-opacity:1"
                         transform="matrix(-3.0885015,-0.57493214,0.57493214,-3.0885015,920.16046,1738.7484)"
                         r="0" />
                      <g
                         transform="matrix(-3.04106,-0.56610081,0.56610081,-3.04106,905.67883,1710.772)"
                         id="layer1-1"
                         inkscape:label="Capa 1">
                        <g
                           inkscape:label="Capa 1"
                           id="layer1-9"
                           transform="matrix(0.66666666,0,0,0.66666666,128.17748,182.51767)">
                          <g
                             id="g4780-4"
                             transform="matrix(1.1580164,0,0,1.1580164,-64.546672,-82.758972)">
                            <g
                               id="g7719-2"
                               transform="matrix(0.28241161,0,0,0.28241161,342.79502,402.75561)">
                              <g
                                 id="g4489-0"
                                 transform="matrix(0.96045985,0,0,0.96045985,9.0002177,19.09919)">
                                <g
                                   id="undo5-6"
                                   sketch:type="MSLayerGroup"
                                   transform="matrix(-1.6074788,0.29923613,-0.29923613,-1.6074788,175.25807,214.99157)"
                                   style="fill:#000000;stroke:none;stroke-width:1.07965529;stroke-miterlimit:4;stroke-dasharray:none">
                                <flowRoot
                                   xml:space="preserve"
                                   id="flowRoot7530-8"
                                   style="font-style:normal;font-weight:normal;font-size:12.5px;line-height:125%;font-family:sans-serif;letter-spacing:0px;word-spacing:0px;fill:#000000;fill-opacity:1;stroke:none;stroke-width:1.07965529;stroke-linecap:butt;stroke-linejoin:miter;stroke-miterlimit:4;stroke-dasharray:none;stroke-opacity:1"><flowRegion
                                   id="flowRegion7532-8"
                                   style="stroke:url(#linearGradient7637)"><rect
                                   id="rect7534-9"
                                   width="100.14703"
                                   height="116.76128"
                                   x="-427.81702"
                                   y="-178.13846"
                                   style="stroke:none;stroke-width:1.07965529;stroke-miterlimit:4;stroke-dasharray:none" /></flowRegion><flowPara
                                   id="flowPara7536-5"
                                   style="stroke:none;stroke-width:1.07965529;stroke-miterlimit:4;stroke-dasharray:none" /></flowRoot>                                <g
                                   id="g4495-7"
                                   transform="matrix(0.95126249,0,0,0.95126249,2.2341504,-8.4379658)">
                                <g
                                   id="g4520-7"
                                   transform="translate(-2.8633216,1.9646179)">
                                <g
                                   transform="matrix(-1.9141839,-0.35633004,0.35633004,-1.9141839,562.76065,1040.5903)"
                                   id="layer1-7-1"
                                   inkscape:label="Capa 1">
                                <g
                                   transform="matrix(1.6134821,0,0,1.6134821,-246.07918,-318.92059)"
                                   id="g5011-0">
                                <g
                                   transform="matrix(0.12799035,0,0,0.12799035,330.90949,498.4778)"
                                   id="g4387-5">
                                <g
                                   id="g4347-3" />
                                <g
                                   id="g4351-2" />
                                <g
                                   id="g4353-1" />
                                <g
                                   id="g4355-0" />
                                <g
                                   id="g4357-3" />
                                <g
                                   id="g4359-3" />
                                <g
                                   id="g4361-4" />
                                <g
                                   id="g4363-1" />
                                <g
                                   id="g4365-0" />
                                <g
                                   id="g4367-7" />
                                <g
                                   id="g4369-1" />
                                <g
                                   id="g4371-0" />
                                <g
                                   id="g4373-9" />
                                <g
                                   id="g4375-3" />
                                <g
                                   id="g4377-1" />
                                <g
                                   id="g4379-2" />
                                </g>
                                </g>
                                </g>
                                <g
                                   id="g4546-0"
                                   transform="matrix(0.99254353,0,0,0.99254353,0.10564195,-1.1289042)">
                                <circle
                                   r="67.570946"
                                   cy="426.28171"
                                   cx="235.78929"
                                   id="path4745-6"
                                   style="opacity:1;fill:none;fill-opacity:1;stroke:none;stroke-width:2.59063697;stroke-linecap:round;stroke-linejoin:round;stroke-miterlimit:4;stroke-dasharray:none;stroke-opacity:1"
                                   transform="matrix(-0.60125698,-0.11192546,0.11192546,-0.60125698,81.312108,148.88102)" />
                                <path
                                   style="color:#000000;font-style:normal;font-variant:normal;font-weight:normal;font-stretch:normal;font-size:medium;line-height:normal;font-family:sans-serif;text-indent:0;text-align:start;text-decoration:none;text-decoration-line:none;text-decoration-style:solid;text-decoration-color:#000000;letter-spacing:normal;word-spacing:normal;text-transform:none;direction:ltr;block-progression:tb;writing-mode:lr-tb;baseline-shift:baseline;text-anchor:start;white-space:normal;clip-rule:nonzero;display:inline;overflow:visible;visibility:visible;opacity:1;isolation:auto;mix-blend-mode:normal;color-interpolation:sRGB;color-interpolation-filters:linearRGB;solid-color:#000000;solid-opacity:1;fill:url(#linearGradient4468-6);fill-opacity:1;fill-rule:nonzero;stroke:none;stroke-width:1.75913525;stroke-linecap:round;stroke-linejoin:round;stroke-miterlimit:4;stroke-dasharray:none;stroke-dashoffset:0;stroke-opacity:1;color-rendering:auto;image-rendering:auto;shape-rendering:auto;text-rendering:auto;enable-background:accumulate"
                                   d="M 11 3 C 6.5870135 3 3.0000001 6.5870088 3 11 C 3.0000002 15.412988 6.5870135 19 11 19 C 15.412986 19 19 15.412986 19 11 C 19 6.5870091 15.412987 3.0000001 11 3 z M 11 3.8925781 C 14.930221 3.8925781 18.105469 7.0697799 18.105469 11 C 18.105469 14.930217 14.930221 18.107422 11 18.107422 C 7.0697841 18.107421 3.8925779 14.930215 3.8925781 11 C 3.8925779 7.0697783 7.0697841 3.892578 11 3.8925781 z "
                                   transform="matrix(-6.08212,-1.1322016,1.1322016,-6.08212,43.005325,-54.469213)"
                                   id="path3377-8" />
                                <g
                                   style="opacity:0.9;fill:#3d4245;fill-opacity:1"
                                   transform="matrix(-0.0597844,-0.01112901,0.01112901,-0.0597844,9.886693,-105.56311)"
                                   id="g3">
                                <path
                                   style="fill:#4d4d4d;fill-opacity:1"
                                   d="M 11 3.8339844 A 7.1666663 7.1666663 0 0 0 3.8339844 11 A 7.1666663 7.1666663 0 0 0 11 18.166016 A 7.1666663 7.1666663 0 0 0 18.166016 11 A 7.1666663 7.1666663 0 0 0 11 3.8339844 z M 10.931641 7.1015625 C 10.998026 7.1015625 11.065746 7.1352993 11.103516 7.2011719 L 13.390625 11.189453 C 14.168829 12.546636 13.69897 14.276493 12.341797 15.054688 C 10.984623 15.832891 9.2528037 15.364976 8.4746094 14.007812 C 7.956937 13.105 7.9940534 12.032621 8.4746094 11.189453 L 10.761719 7.2011719 C 10.799484 7.1352993 10.865256 7.1015625 10.931641 7.1015625 z "
                                   transform="matrix(101.73423,4.4549888e-6,-4.4549888e-6,101.73423,-689.17842,-726.34372)"
                                   id="path5" />
                                </g>
                                </g>
                                </g>
                                </g>
                                </g>
                              </g>
                            </g>
                          </g>
                        </g>
                      </g>
                    </g>
                  </g>
                </g>
              </g>
            </g>
          </g>
        </g>
      </g>
    </g>
  </g>
</svg>
